assets/icon.svg

<?xml version="1.0" encoding="UTF-8" standalone="no" ?>
<!DOCTYPE svg PUBLIC "-//W3C//DTD SVG 1.1//EN" "http://www.w3.org/Graphics/SVG/1.1/DTD/svg11.dtd">
<svg xmlns="http://www.w3.org/2000/svg" xmlns:xlink="http://www.w3.org/1999/xlink" version="1.1" width="640" height="640" viewBox="0 0 640 640" xml:space="preserve">
<desc>Created with Fabric.js 3.6.3</desc>
<defs>
</defs>
<g transform="matrix(1.33 0 0 1.3 204.5 320)"  >
<g style=""   >
		<g transform="matrix(1 0 0 1 17.1 0)" id="Capa_1"  >
<path style="stroke: none; stroke-width: 1; stroke-dasharray: none; stroke-linecap: butt; stroke-dashoffset: 0; stroke-linejoin: miter; stroke-miterlimit: 4; fill: rgb(0,0,0); fill-rule: nonzero; opacity: 1;"  transform=" translate(-262.1, -245)" d="M 262.096 490 c -14.151 0 -27.883 -2.774 -40.818 -8.245 c -12.487 -5.281 -23.7 -12.841 -33.326 -22.468 c -9.626 -9.626 -17.185 -20.838 -22.468 -33.326 c -5.47 -12.933 -8.244 -26.666 -8.244 -40.816 c 0 -16.766 4.058 -33.445 11.733 -48.233 c 6.607 -12.729 15.9 -24.11 27.054 -33.183 V 49.967 C 196.028 22.415 218.443 0 245.996 0 h 32.201 c 27.552 0 49.968 22.415 49.968 49.967 v 253.762 c 11.154 9.072 20.447 20.453 27.054 33.183 c 7.676 14.788 11.733 31.468 11.733 48.233 c 0 14.15 -2.773 27.884 -8.245 40.816 c -5.282 12.488 -12.84 23.7 -22.467 33.326 c -9.626 9.627 -20.839 17.186 -33.327 22.468 C 289.981 487.226 276.248 490 262.096 490 z M 245.996 20.578 c -16.205 0 -29.389 13.184 -29.389 29.389 V 308.78 c 0 3.281 -1.565 6.366 -4.213 8.304 c -21.649 15.84 -34.574 41.283 -34.574 68.06 c 0 46.47 37.806 84.276 84.277 84.276 c 46.471 0 84.277 -37.807 84.277 -84.276 c 0 -26.777 -12.925 -52.221 -34.575 -68.06 c -2.648 -1.938 -4.213 -5.023 -4.213 -8.304 V 49.967 c 0 -16.205 -13.184 -29.389 -29.389 -29.389 H 245.996 z" stroke-linecap="round" />
</g>
		<g transform="matrix(1 0 0 1 17.1 21.66)" id="Capa_1"  >
<path style="stroke: none; stroke-width: 1; stroke-dasharray: none; stroke-linecap: butt; stroke-dashoffset: 0; stroke-linejoin: miter; stroke-miterlimit: 4; fill: rgb(0,0,0); fill-rule: nonzero; opacity: 1;"  transform=" translate(-262.1, -266.66)" d="M 283.943 325.025 v -224.65 c 0 -8.918 -7.229 -16.147 -16.146 -16.147 h -11.402 c -8.917 0 -16.146 7.229 -16.146 16.147 v 224.65 c -24.561 8.927 -42.105 32.475 -42.105 60.121 c 0 35.32 28.632 63.953 63.952 63.953 c 35.32 0 63.953 -28.633 63.953 -63.953 C 326.048 357.5 308.505 333.952 283.943 325.025 z M 247.931 365.24 c -4.783 4.243 -7.878 9.827 -8.949 16.148 c -0.563 3.33 -0.526 6.681 0.113 9.957 c 0.819 4.204 -1.925 8.276 -6.13 9.096 c -0.501 0.099 -1 0.146 -1.492 0.146 c -3.637 0 -6.883 -2.57 -7.605 -6.274 c -0.997 -5.117 -1.057 -10.337 -0.18 -15.514 c 1.643 -9.707 6.598 -18.643 13.95 -25.164 c 3.205 -2.842 8.107 -2.549 10.95 0.656 C 251.429 357.496 251.136 362.397 247.931 365.24 z" stroke-linecap="round" />
</g>
		<g transform="matrix(1 0 0 1 -104.84 -174.29)" id="Capa_1"  >
<path style="stroke: none; stroke-width: 1; stroke-dasharray: none; stroke-linecap: butt; stroke-dashoffset: 0; stroke-linejoin: miter; stroke-miterlimit: 4; fill: rgb(0,0,0); fill-rule: nonzero; opacity: 1;"  transform=" translate(-140.16, -70.71)" d="M 157.262 75.302 c 0 4.658 -3.776 8.436 -8.436 8.436 h -17.341 c -4.66 0 -8.437 -3.778 -8.437 -8.436 v -9.192 c 0 -4.66 3.777 -8.437 8.437 -8.437 h 17.341 c 4.66 0 8.436 3.776 8.436 8.437 V 75.302 z" stroke-linecap="round" />
</g>
		<g transform="matrix(1 0 0 1 -104.84 -119.3)" id="Capa_1"  >
<path style="stroke: none; stroke-width: 1; stroke-dasharray: none; stroke-linecap: butt; stroke-dashoffset: 0; stroke-linejoin: miter; stroke-miterlimit: 4; fill: rgb(0,0,0); fill-rule: nonzero; opacity: 1;"  transform=" translate(-140.16, -125.7)" d="M 157.262 130.298 c 0 4.66 -3.776 8.437 -8.436 8.437 h -17.341 c -4.66 0 -8.437 -3.776 -8.437 -8.437 v -9.192 c 0 -4.66 3.777 -8.437 8.437 -8.437 h 17.341 c 4.66 0 8.436 3.776 8.436 8.437 V 130.298 z" stroke-linecap="round" />
</g>
		<g transform="matrix(1 0 0 1 -104.84 -64.3)" id="Capa_1"  >
<path style="stroke: none; stroke-width: 1; stroke-dasharray: none; stroke-linecap: butt; stroke-dashoffset: 0; stroke-linejoin: miter; stroke-miterlimit: 4; fill: rgb(0,0,0); fill-rule: nonzero; opacity: 1;"  transform=" translate(-140.16, -180.7)" d="M 157.262 185.294 c 0 4.66 -3.776 8.437 -8.436 8.437 h -17.341 c -4.66 0 -8.437 -3.776 -8.437 -8.437 v -9.191 c 0 -4.659 3.777 -8.438 8.437 -8.438 h 17.341 c 4.66 0 8.436 3.778 8.436 8.438 V 185.294 z" stroke-linecap="round" />
</g>
		<g transform="matrix(1 0 0 1 -104.84 -9.3)" id="Capa_1"  >
<path style="stroke: none; stroke-width: 1; stroke-dasharray: none; stroke-linecap: butt; stroke-dashoffset: 0; stroke-linejoin: miter; stroke-miterlimit: 4; fill: rgb(0,0,0); fill-rule: nonzero; opacity: 1;"  transform=" translate(-140.16, -235.7)" d="M 157.262 240.291 c 0 4.659 -3.776 8.438 -8.436 8.438 h -17.341 c -4.66 0 -8.437 -3.778 -8.437 -8.438 V 231.1 c 0 -4.66 3.777 -8.436 8.437 -8.436 h 17.341 c 4.66 0 8.436 3.776 8.436 8.436 V 240.291 z" stroke-linecap="round" />
</g>
		<g transform="matrix(1 0 0 1 -104.84 45.69)" id="Capa_1"  >
<path style="stroke: none; stroke-width: 1; stroke-dasharray: none; stroke-linecap: butt; stroke-dashoffset: 0; stroke-linejoin: miter; stroke-miterlimit: 4; fill: rgb(0,0,0); fill-rule: nonzero; opacity: 1;"  transform=" translate(-140.16, -290.69)" d="M 157.262 295.287 c 0 4.661 -3.776 8.438 -8.436 8.438 h -17.341 c -4.66 0 -8.437 -3.776 -8.437 -8.438 v -9.191 c 0 -4.658 3.777 -8.436 8.437 -8.436 h 17.341 c 4.66 0 8.436 3.778 8.436 8.436 V 295.287 z" stroke-linecap="round" />
</g>
</g>
</g>
<g transform="matrix(7.08 0 0 7.08 489.7 214.8)" id="Capa_1"  >
<path style="stroke: none; stroke-width: 1; stroke-dasharray: none; stroke-linecap: butt; stroke-dashoffset: 0; stroke-linejoin: miter; stroke-miterlimit: 4; fill: rgb(0,0,0); fill-rule: nonzero; opacity: 1;"  transform=" translate(-30, -30)" d="M 45.994 16.917 L 26.834 0 v 21.758 l -8.586 -8.586 l -4.242 4.242 L 26.092 29.5 L 14.006 41.586 l 4.242 4.242 l 8.586 -8.586 V 60 l 19.16 -19.083 l -11.52 -11.52 L 45.994 16.917 z M 32.834 46.327 V 36.242 l 4.84 4.841 L 32.834 46.327 z M 37.675 17.083 l -4.84 5.244 V 12.242 L 37.675 17.083 z" stroke-linecap="round" />
</g>
</svg>

<?xml version="1.0" encoding="UTF-8" standalone="no"?>
<!DOCTYPE svg PUBLIC "-//W3C//DTD SVG 1.1//EN" "http://www.w3.org/Graphics/SVG/1.1/DTD/svg11.dtd">
<svg width="100%" height="100%" viewBox="0 0 640 640" version="1.1" xmlns="http://www.w3.org/2000/svg" xmlns:xlink="http://www.w3.org/1999/xlink" xml:space="preserve" xmlns:serif="http://www.serif.com/" style="fill-rule:evenodd;clip-rule:evenodd;stroke-linejoin:round;stroke-miterlimit:2;">
    <g transform="matrix(1.33,0,0,1.3,204.5,320)">
        <g>
            <g transform="matrix(1,0,0,1,-245,-245)">
                <g id="Capa_1">
                    <path d="M262.096,490C247.945,490 234.213,487.226 221.278,481.755C208.791,476.474 197.578,468.914 187.952,459.287C178.326,449.661 170.767,438.449 165.484,425.961C160.014,413.028 157.24,399.295 157.24,385.145C157.24,368.379 161.298,351.7 168.973,336.912C175.58,324.183 184.873,312.802 196.027,303.729L196.027,49.967C196.028,22.415 218.443,0 245.996,0L278.197,0C305.749,0 328.165,22.415 328.165,49.967L328.165,303.729C339.319,312.801 348.612,324.182 355.219,336.912C362.895,351.7 366.952,368.38 366.952,385.145C366.952,399.295 364.179,413.029 358.707,425.961C353.425,438.449 345.867,449.661 336.24,459.287C326.614,468.914 315.401,476.473 302.913,481.755C289.981,487.226 276.248,490 262.096,490ZM245.996,20.578C229.791,20.578 216.607,33.762 216.607,49.967L216.607,308.78C216.607,312.061 215.042,315.146 212.394,317.084C190.745,332.924 177.82,358.367 177.82,385.144C177.82,431.614 215.626,469.42 262.097,469.42C308.568,469.42 346.374,431.613 346.374,385.144C346.374,358.367 333.449,332.923 311.799,317.084C309.151,315.146 307.586,312.061 307.586,308.78L307.586,49.967C307.586,33.762 294.402,20.578 278.197,20.578L245.996,20.578Z" style="fill-rule:nonzero;"/>
                </g>
            </g>
            <g transform="matrix(1,0,0,1,-245,-245)">
                <g id="Capa_11" serif:id="Capa_1">
                    <path d="M283.943,325.025L283.943,100.375C283.943,91.457 276.714,84.228 267.797,84.228L256.395,84.228C247.478,84.228 240.249,91.457 240.249,100.375L240.249,325.025C215.688,333.952 198.144,357.5 198.144,385.146C198.144,420.466 226.776,449.099 262.096,449.099C297.416,449.099 326.049,420.466 326.049,385.146C326.048,357.5 308.505,333.952 283.943,325.025ZM247.931,365.24C243.148,369.483 240.053,375.067 238.982,381.388C238.419,384.718 238.456,388.069 239.095,391.345C239.914,395.549 237.17,399.621 232.965,400.441C232.464,400.54 231.965,400.587 231.473,400.587C227.836,400.587 224.59,398.017 223.868,394.313C222.871,389.196 222.811,383.976 223.688,378.799C225.331,369.092 230.286,360.156 237.638,353.635C240.843,350.793 245.745,351.086 248.588,354.291C251.429,357.496 251.136,362.397 247.931,365.24Z" style="fill-rule:nonzero;"/>
                </g>
            </g>
            <g transform="matrix(1,0,0,1,-245,-245)">
                <g id="Capa_12" serif:id="Capa_1">
                    <path d="M157.262,75.302C157.262,79.96 153.486,83.738 148.826,83.738L131.485,83.738C126.825,83.738 123.048,79.96 123.048,75.302L123.048,66.11C123.048,61.45 126.825,57.673 131.485,57.673L148.826,57.673C153.486,57.673 157.262,61.449 157.262,66.11L157.262,75.302Z" style="fill-rule:nonzero;"/>
                </g>
            </g>
            <g transform="matrix(1,0,0,1,-245,-245)">
                <g id="Capa_13" serif:id="Capa_1">
                    <path d="M157.262,130.298C157.262,134.958 153.486,138.735 148.826,138.735L131.485,138.735C126.825,138.735 123.048,134.959 123.048,130.298L123.048,121.106C123.048,116.446 126.825,112.669 131.485,112.669L148.826,112.669C153.486,112.669 157.262,116.445 157.262,121.106L157.262,130.298Z" style="fill-rule:nonzero;"/>
                </g>
            </g>
            <g transform="matrix(1,0,0,1,-245,-245)">
                <g id="Capa_14" serif:id="Capa_1">
                    <path d="M157.262,185.294C157.262,189.954 153.486,193.731 148.826,193.731L131.485,193.731C126.825,193.731 123.048,189.955 123.048,185.294L123.048,176.103C123.048,171.444 126.825,167.665 131.485,167.665L148.826,167.665C153.486,167.665 157.262,171.443 157.262,176.103L157.262,185.294Z" style="fill-rule:nonzero;"/>
                </g>
            </g>
            <g transform="matrix(1,0,0,1,-245,-245)">
                <g id="Capa_15" serif:id="Capa_1">
                    <path d="M157.262,240.291C157.262,244.95 153.486,248.729 148.826,248.729L131.485,248.729C126.825,248.729 123.048,244.951 123.048,240.291L123.048,231.1C123.048,226.44 126.825,222.664 131.485,222.664L148.826,222.664C153.486,222.664 157.262,226.44 157.262,231.1L157.262,240.291Z" style="fill-rule:nonzero;"/>
                </g>
            </g>
            <g transform="matrix(1,0,0,1,-245,-245)">
                <g id="Capa_16" serif:id="Capa_1">
                    <path d="M157.262,295.287C157.262,299.948 153.486,303.725 148.826,303.725L131.485,303.725C126.825,303.725 123.048,299.949 123.048,295.287L123.048,286.096C123.048,281.438 126.825,277.66 131.485,277.66L148.826,277.66C153.486,277.66 157.262,281.438 157.262,286.096L157.262,295.287Z" style="fill-rule:nonzero;"/>
                </g>
            </g>
        </g>
    </g>
    <g id="Capa_17" serif:id="Capa_1" transform="matrix(7.08,0,0,7.08,489.7,214.8)">
        <g transform="matrix(0.666186,0,0,0.666186,-24.5918,-30.1676)">
            <path d="M45.994,16.917L26.834,0L26.834,21.758L18.248,13.172L14.006,17.414L26.092,29.5L14.006,41.586L18.248,45.828L26.834,37.242L26.834,60L45.994,40.917L34.474,29.397L45.994,16.917ZM32.834,46.327L32.834,36.242L37.674,41.083L32.834,46.327ZM37.675,17.083L32.835,22.327L32.835,12.242L37.675,17.083Z" style="fill-rule:nonzero;"/>
        </g>
        <g id="zigbee-svgrepo-com.svg" transform="matrix(0.0337482,0,0,0.0337482,-4.85673,26.0246)">
            <g transform="matrix(1,0,0,1,-400,-400)">
                <clipPath id="_clip1">
                    <rect x="0" y="0" width="800" height="800"/>
                </clipPath>
                <g clip-path="url(#_clip1)">
                    <path d="M399.6,0C291.038,-0.169 187.069,44.425 112.367,123.2C346.367,94.033 492.4,103.767 555.333,111.867C680.4,131.3 673.933,225.333 673.933,225.333L274.567,637.067C351.2,644.4 504.467,649.267 734.433,616.033C776.097,551.847 798.242,476.923 798.167,400.4C798.167,179.133 619.833,0 399.6,0ZM407.333,143.667C325.633,143.2 214.933,148.533 75.233,167.767C28.467,233.433 1.833,313.667 1.833,400.4C1.833,620.867 179.333,800 399.6,800C520.6,800 627.933,745.667 701.367,660.6C458.5,692.2 307.6,681.633 243.033,673.533C117.2,654.867 124.467,560.067 124.467,560.067L523.033,149.133C484.568,145.588 445.962,143.775 407.333,143.7L407.333,143.667Z" style="fill-rule:nonzero;"/>
                </g>
            </g>
        </g>
    </g>
</svg>
